gama.ui.shared/icons_svg/dark/experiment/errors.warnings.svg

<svg height="25" viewBox="-814.774 -3200.298 25 25" width="25" xmlns="http://www.w3.org/2000/svg"><g fill="none"><circle cx="-802.274" cy="-3187.798" fill="#666" r="12"/><circle cx="-802.274" cy="-3187.798" r="12" stroke="#fff" stroke-linecap="round" stroke-linejoin="round" stroke-width=".25"/><path d="m-801.9052-3188.1743c0 .2063-.1621.3683-.3685.3683-.2063 0-.3684-.162-.3684-.3683v-2.9473c0-.2064.1621-.3684.3684-.3684.2064 0 .3685.162.3685.3684zm-.7369 1.842h.7369v.7368h-.7369zm.0442-9.3797c.14-.258.5158-.258.6484 0l6.6314 12.526c.1326.243-.0516.5378-.3242.5378h-13.2627c-.28 0-.4568-.2948-.3242-.5378zm-5.6955 12.327h12.0395l-6.0198-11.369z" fill="#fc6d7e"/></g></svg>

<?xml version="1.0" encoding="UTF-8" standalone="no"?>
<!DOCTYPE svg PUBLIC "-//W3C//DTD SVG 1.1//EN" "http://www.w3.org/Graphics/SVG/1.1/DTD/svg11.dtd">
<svg xmlns:dc="http://purl.org/dc/elements/1.1/" version="1.1" xmlns="http://www.w3.org/2000/svg" xmlns:xl="http://www.w3.org/1999/xlink" viewBox="-814.7741 -3200.298 24.999996 25" width="24.999996" height="25">
  <defs/>
  <g id="SOURCES" stroke="none" stroke-dasharray="none" fill-opacity="1" stroke-opacity="1" fill="none">
    <title>SOURCES</title>
    <g id="SOURCES_Dark">
      <title>Dark</title>
      <g id="Graphic_11384">
        <circle cx="-802.2741" cy="-3187.798" r="12.000018268838" fill="#666"/>
        <circle cx="-802.2741" cy="-3187.798" r="12.000018268838" stroke="white" stroke-linecap="round" stroke-linejoin="round" stroke-width=".25"/>
      </g>
      <g id="Graphic_11383">
        <path d="M -801.9052 -3188.1743 C -801.9052 -3187.968 -802.0673 -3187.806 -802.2737 -3187.806 C -802.48 -3187.806 -802.6421 -3187.968 -802.6421 -3188.1743 L -802.6421 -3191.1216 C -802.6421 -3191.328 -802.48 -3191.49 -802.2737 -3191.49 C -802.0673 -3191.49 -801.9052 -3191.328 -801.9052 -3191.1216 Z M -802.6421 -3186.3323 L -801.9052 -3186.3323 L -801.9052 -3185.5955 L -802.6421 -3185.5955 Z M -802.5979 -3195.712 C -802.4579 -3195.97 -802.0821 -3195.97 -801.9495 -3195.712 L -795.3181 -3183.186 C -795.1855 -3182.943 -795.3697 -3182.6482 -795.6423 -3182.6482 L -808.905 -3182.6482 C -809.185 -3182.6482 -809.3618 -3182.943 -809.2292 -3183.186 Z M -808.2934 -3183.385 L -796.2539 -3183.385 L -802.2737 -3194.754 Z" fill="#fc6d7e"/>
      </g>
    </g>
  </g>
</svg>
